symbols/web/upload_file/materialsymbolsrounded/upload_file_wght300gradN25_40px.svg

<svg xmlns="http://www.w3.org/2000/svg" height="40" width="40"><path d="M19.042 22.5v7.042q0 .416.312.687.313.271.688.271.416 0 .708-.271t.292-.687V22.5l2.75 2.75q.125.083.437.021.313-.063.604-.146.292-.083.438-.104.146-.021-.063.187.292-.291.292-.687 0-.396-.292-.729l-4.333-4.209q-.167-.208-.396-.291-.229-.084-.437-.084-.25 0-.48.084-.229.083-.437.291l-4.25 4.25q-.333.334-.333.729 0 .396.291.73.334.291.75.291.417 0 .709-.291Zm-8.875 13.125q-1 0-1.75-.729t-.75-1.771V6.875q0-1.042.75-1.771.75-.729 1.75-.729h12.958q.542 0 1 .187.458.188.833.521l6.625 6.625q.334.375.542.834.208.458.208 1v19.583q0 1.042-.75 1.771-.75.729-1.75.729Zm13-23.458V6.375h-13q-.167 0-.334.146-.166.146-.166.354v26.25q0 .208.166.354.167.146.334.146h19.666q.167 0 .334-.146.166-.146.166-.354V13.458h-5.875q-.541 0-.916-.375t-.375-.916Zm-13.5-5.792v7.083-7.083 27.25-27.25Z"/></svg>

<svg xmlns="http://www.w3.org/2000/svg" height="40" width="40"><path d="M20.042 30.5Q20.458 30.5 20.75 30.229Q21.042 29.958 21.042 29.542V22.5L23.833 25.25Q24.083 25.542 24.479 25.542Q24.875 25.542 25.25 25.25Q25.542 24.917 25.521 24.5Q25.5 24.083 25.208 23.792L20.875 19.542Q20.708 19.375 20.479 19.292Q20.25 19.208 20 19.208Q19.75 19.208 19.542 19.292Q19.333 19.375 19.167 19.542L14.792 23.875Q14.542 24.167 14.542 24.562Q14.542 24.958 14.833 25.292Q15.167 25.583 15.583 25.583Q16 25.583 16.292 25.292L19.042 22.5V29.5Q19.042 29.958 19.354 30.229Q19.667 30.5 20.042 30.5ZM10.167 35.625Q9.167 35.625 8.417 34.896Q7.667 34.167 7.667 33.125V6.875Q7.667 5.833 8.417 5.104Q9.167 4.375 10.167 4.375H23.125Q23.625 4.375 24.083 4.562Q24.542 4.75 24.958 5.083L31.583 11.708Q31.958 12.125 32.146 12.583Q32.333 13.042 32.333 13.542V33.125Q32.333 34.167 31.583 34.896Q30.833 35.625 29.833 35.625ZM23.167 6.375H10.167Q10 6.375 9.833 6.521Q9.667 6.667 9.667 6.875V33.125Q9.667 33.333 9.833 33.479Q10 33.625 10.167 33.625H29.833Q30 33.625 30.167 33.479Q30.333 33.333 30.333 33.125V13.458H24.417Q23.875 13.458 23.521 13.104Q23.167 12.75 23.167 12.208ZM9.667 6.375V12.208Q9.667 12.75 9.667 13.104Q9.667 13.458 9.667 13.458V6.375V12.208Q9.667 12.75 9.667 13.104Q9.667 13.458 9.667 13.458V33.125Q9.667 33.333 9.667 33.479Q9.667 33.625 9.667 33.625Q9.667 33.625 9.667 33.479Q9.667 33.333 9.667 33.125V6.875Q9.667 6.667 9.667 6.521Q9.667 6.375 9.667 6.375Z"/></svg>
